X:40
T:The Blarney Pilgrim
M:6/8
L:1/8
R:jig
K:G
D3 DEG|A3 ABc|BAG AGE|GEA GED|D3 DEG|A3 ABc|BAG AGE|GED D3:|
ded dBG|AGA BGE|ded dBG|ABA GBd|g2e dBG|AGA BGE|B2G AGE|GAG GFG:|
A2D B2D|A2D ABc|BAG AGE|GEA GED|A2D B2D|A2D ABc|BAG AGE|GED D3:|
